ray-start-end.svg

<svg fill="currentColor" viewBox="0 0 24 24"><path d="M4 9c1.31 0 2.42.83 2.83 2h10.34c.41-1.17 1.52-2 2.83-2a3 3 0 0 1 3 3 3 3 0 0 1-3 3 2.99 2.99 0 0 1-2.83-2H6.83A2.99 2.99 0 0 1 4 15a3 3 0 0 1-3-3 3 3 0 0 1 3-3"/></svg>

<svg  viewBox="0 0 24 24" fill="currentColor"><path  d="M4,9C5.31,9 6.42,9.83 6.83,11H17.17C17.58,9.83 18.69,9 20,9A3,3 0 0,1 23,12A3,3 0 0,1 20,15C18.69,15 17.58,14.17 17.17,13H6.83C6.42,14.17 5.31,15 4,15A3,3 0 0,1 1,12A3,3 0 0,1 4,9Z"/></svg>
